X: 2
T: Reel Beatrice
R: reel
M: 4/4
L: 1/8
K: Amin
A,/B,/|:CA, EC|AE z A/B/|cA ec|ae z a/b/|c'/b/a/g/ f/e/d/c/|Be z e/f/|ed cB|[1 cA z A,/B,/:|[2 A2 z a/a/|||:a/^g/g/b/ bf/f/|f/e/e/a/ ac/d/|e/f/e/d/ c/d/c/B/|[1cA z a/a/:|[2 A2 z A,/B,/||CA, EC|AE z A/B/|cA ec|ae z a/b/|c'/b/a/g/ f/e/d/c/|Be z e/f/|ed cB|A2 e/d/c/B/|||:cG E/G/c/e/|cG E/G/c/e/|dB G/B/d/B/|[1 cg/f/ e/d/c/B/:|[2 c2 z A,/B,/||CA, EC|AE z A/B/|cA ec|ae z a/b/|c'/b/a/g/ f/e/d/c/|Be z e/f/|ed cB A2|]


Tune 483	Setting 483

